elusive/instagram.svg

<?xml version="1.0" encoding="UTF-8" standalone="no"?>
<!-- Generator: IcoMoon.io -->

<svg
   xmlns:dc="http://purl.org/dc/elements/1.1/"
   xmlns:cc="http://creativecommons.org/ns#"
   xmlns:rdf="http://www.w3.org/1999/02/22-rdf-syntax-ns#"
   xmlns:svg="http://www.w3.org/2000/svg"
   xmlns="http://www.w3.org/2000/svg"
   xmlns:sodipodi="http://sodipodi.sourceforge.net/DTD/sodipodi-0.dtd"
   xmlns:inkscape="http://www.inkscape.org/namespaces/inkscape"
   id="svg2"
   version="1.1"
   data-tags="remove-circle, cancel, close, remove, delete"
   height="1200"
   width="1200"
   data-du=""
   viewBox="0 0 1200 1200"
   inkscape:version="0.48.4 r9939"
   sodipodi:docname="instagram.svg">
  <defs
     id="defs32" />
  <sodipodi:namedview
     pagecolor="#ffffff"
     bordercolor="#666666"
     borderopacity="1"
     objecttolerance="10"
     gridtolerance="10"
     guidetolerance="10"
     inkscape:pageopacity="0"
     inkscape:pageshadow="2"
     inkscape:window-width="1535"
     inkscape:window-height="876"
     id="namedview30"
     showgrid="false"
     inkscape:zoom="0.52678571"
     inkscape:cx="665.30441"
     inkscape:cy="604.85103"
     inkscape:window-x="65"
     inkscape:window-y="24"
     inkscape:window-maximized="1"
     inkscape:current-layer="svg2" />
  <metadata
     id="metadata62">
    <rdf:RDF>
      <cc:Work
         rdf:about="">
        <dc:format>image/svg+xml</dc:format>
        <dc:type
           rdf:resource="http://purl.org/dc/dcmitype/StillImage" />
        <dc:title />
      </cc:Work>
    </rdf:RDF>
  </metadata>
  <path
     id="path12696"
     d="m 3.2500003e-7,-5.0000006e-7 0,342.26063050000004 355.22460967499995,0 c 54.64711,-70.08774 140.2275,-115.28297 236.49914,-115.28297 96.27679,0 181.92539,45.18844 236.57204,115.28297 l 371.70421,0 0,-342.26063050000004 -1199.99999967500002,0 z M 960.27843,50.903437 l 112.20707,0 c 39.9461,0 72.0703,32.19703 72.0703,72.143443 l 0,93.96984 c 0,39.94618 -32.1242,72.14344 -72.0703,72.14344 l -112.20707,0 c -39.9464,0 -72.07031,-32.19726 -72.07031,-72.14344 l 0,-93.96984 c 0,-39.946413 32.12391,-72.143443 72.07031,-72.143443 z m -828.51562,1.098507 40.94227,0 0,237.231336 -40.94227,0 0,-237.231336 z m 70.38563,0 42.18749,0 0,237.231336 -42.18749,0 0,-237.231336 z m 71.63086,0 40.94227,0 0,71.044936 0,96.38671 0,69.79969 -40.94227,0 0,-237.231336 z m -172.70508,6.371954 0,230.859382 -42.260627,0 0,-166.1864 c 0,-14.36954 4.055859,-27.484452 12.157969,-39.330949 C 79.073906,71.876957 89.134453,63.448119 101.07422,58.373898 z M 591.28407,260.96203 c -145.56166,0 -263.59853,117.50672 -263.59853,262.35329 0,144.84702 118.03687,262.28038 263.59853,262.28038 145.56187,0 263.59874,-117.43336 263.59874,-262.28038 0,-144.84657 -118.03687,-262.35329 -263.59874,-262.35329 z m 0,53.24695 c 116.06531,0 210.13195,93.61125 210.13195,209.10634 0,115.4953 -94.06664,209.10655 -210.13195,209.10655 -116.06508,0 -210.13172,-93.61125 -210.13172,-209.10655 0,-115.49509 94.06664,-209.10634 210.13172,-209.10634 z M 3.2500009e-7,390.74718 l 0,809.25282 L 1200,1200 l 0,-809.25282 -340.86914,0 c 20.12788,39.85313 31.42102,84.89228 31.42102,132.49501 0,163.59468 -133.80329,296.1914 -298.82813,296.1914 -165.02508,0 -298.755,-132.59672 -298.755,-296.1914 0,-47.61445 11.3571,-92.63461 31.49415,-132.49501 l -324.46289967499996,0 z"
     inkscape:connector-curvature="0" />
</svg>

<?xml version="1.0" encoding="utf-8"?>
<!-- Generator: Adobe Illustrator 16.0.0, SVG Export Plug-In . SVG Version: 6.00 Build 0)  -->
<!DOCTYPE svg PUBLIC "-//W3C//DTD SVG 1.1//EN" "http://www.w3.org/Graphics/SVG/1.1/DTD/svg11.dtd">
<svg version="1.1"
	 id="svg2" xmlns:dc="http://purl.org/dc/elements/1.1/" xmlns:cc="http://creativecommons.org/ns#" xmlns:rdf="http://www.w3.org/1999/02/22-rdf-syntax-ns#" xmlns:svg="http://www.w3.org/2000/svg" xmlns:sodipodi="http://sodipodi.sourceforge.net/DTD/sodipodi-0.dtd" xmlns:inkscape="http://www.inkscape.org/namespaces/inkscape" sodipodi:docname="instagram.svg" inkscape:version="0.48.4 r9939"
	 xmlns="http://www.w3.org/2000/svg" xmlns:xlink="http://www.w3.org/1999/xlink" x="0px" y="0px" width="1200px" height="1200px"
	 viewBox="0 0 1200 1200" enable-background="new 0 0 1200 1200" xml:space="preserve">
<sodipodi:namedview  inkscape:cy="604.85103" inkscape:cx="665.30441" inkscape:zoom="0.52678571" showgrid="false" id="namedview30" guidetolerance="10" gridtolerance="10" objecttolerance="10" borderopacity="1" bordercolor="#666666" pagecolor="#ffffff" inkscape:current-layer="svg2" inkscape:window-maximized="1" inkscape:window-y="24" inkscape:window-height="876" inkscape:window-width="1535" inkscape:pageshadow="2" inkscape:pageopacity="0" inkscape:window-x="65">
	</sodipodi:namedview>
<path id="path12696" inkscape:connector-curvature="0" d="M0,0v342.261h355.225c54.647-70.088,140.228-115.283,236.499-115.283
	c96.277,0,181.926,45.188,236.572,115.283H1200V0H0z M960.278,50.903h112.207c39.946,0,72.07,32.197,72.07,72.144v93.97
	c0,39.946-32.124,72.144-72.07,72.144H960.278c-39.946,0-72.07-32.197-72.07-72.144v-93.97
	C888.208,83.101,920.332,50.903,960.278,50.903L960.278,50.903z M131.763,52.002h40.942v237.231h-40.942V52.002z M202.148,52.002
	h42.188v237.231h-42.188V52.002z M273.779,52.002h40.942v71.045v96.387v69.8h-40.942V52.002z M101.074,58.374v230.859H58.813
	V123.047c0-14.37,4.056-27.484,12.158-39.331C79.074,71.877,89.134,63.448,101.074,58.374z M591.284,260.962
	c-145.562,0-263.599,117.507-263.599,262.354s118.037,262.28,263.599,262.28s263.599-117.434,263.599-262.28
	S736.846,260.962,591.284,260.962L591.284,260.962z M591.284,314.209c116.065,0,210.132,93.611,210.132,209.106
	S707.35,732.422,591.284,732.422s-210.132-93.611-210.132-209.106S475.219,314.209,591.284,314.209z M0,390.747V1200h1200V390.747
	H859.131c20.128,39.854,31.421,84.893,31.421,132.495c0,163.595-133.803,296.191-298.828,296.191S292.969,686.837,292.969,523.242
	c0-47.614,11.357-92.635,31.494-132.495H0z"/>
</svg>
